images/index/shuffle.svg

<svg width="24px" height="24px" viewBox="0 0 24 22" fill="none" xmlns="http://www.w3.org/2000/svg">
<path d="M18.0734 20.3674L16.5861 18.9395L17.4494 18.1107L18.3459 17.25H17.1031H16.1875C13.5247 17.25 11.816 15.8656 10.4589 14.2105C10.9513 13.6518 11.3857 13.0748 11.7768 12.5269C13.0029 14.1502 14.2021 15.25 16.1875 15.25H17.1031H18.3459L17.4494 14.3893L16.5861 13.5605L18.0734 12.1326L22.3624 16.25L18.0734 20.3674ZM22.3624 5.75L18.0734 9.86739L16.5861 8.4395L17.4494 7.61069L18.3459 6.75H17.1031H16.1875C14.9641 6.75 14.0252 7.16706 13.1861 7.8978C12.3722 8.60653 11.6453 9.61798 10.8268 10.7965L10.8268 10.7966C9.20883 13.1268 7.35596 15.75 3.6875 15.75H1.0625V13.75H3.6875C4.91093 13.75 5.84975 13.3329 6.68891 12.6022C7.50277 11.8935 8.22974 10.882 9.04819 9.70345L9.04821 9.70341C10.6662 7.37317 12.519 4.75 16.1875 4.75H17.1031H18.3459L17.4494 3.8893L16.5861 3.0605L18.0734 1.63261L22.3624 5.75ZM3.6875 6.25C5.58224 6.25 6.98779 6.94933 8.12617 7.93853C8.01052 8.10041 7.87333 8.29329 7.72849 8.49692C7.45761 8.87776 7.15997 9.29622 6.92636 9.61993C6.03742 8.76642 5.04482 8.25 3.6875 8.25H1.0625V6.25H3.6875Z" fill="#ffdd00" stroke="#ffdd00"/>
</svg>

<svg width="24" height="24" viewBox="0 0 24 22" fill="none" xmlns="http://www.w3.org/2000/svg"><path d="m18.073 20.367-1.487-1.428.863-.828.897-.861H16.187c-2.662 0-4.371-1.384-5.728-3.04.492-.558.927-1.135 1.318-1.683 1.226 1.623 2.425 2.723 4.41 2.723H18.346l-.897-.86-.863-.83 1.487-1.427 4.29 4.117-4.29 4.117Zm4.29-14.617-4.29 4.117-1.487-1.428.863-.828.897-.861H16.187c-1.223 0-2.162.417-3 1.148-.815.709-1.542 1.72-2.36 2.899-1.618 2.33-3.471 4.953-7.14 4.953H1.063v-2h2.625c1.223 0 2.162-.417 3-1.148.815-.709 1.542-1.72 2.36-2.899 1.618-2.33 3.471-4.953 7.14-4.953H18.346l-.897-.86-.863-.83 1.487-1.427 4.29 4.117Zm-18.675.5c1.894 0 3.3.7 4.438 1.689l-.398.558c-.27.38-.568.8-.802 1.123-.889-.854-1.881-1.37-3.239-1.37H1.063v-2h2.625Z" fill="#fd0" stroke="#fd0"/></svg>
